!!!OTL@@DE: Es ist bestimmt in Gottes Rath
!!!COM: Mendelssohn-Bartholdy, Felix
!!!ODT: 1839
!!!OMD: Poco sosteunto
!!!LYR: Feuchtersieben, Ernst von
!!!LDT: <1826
!!!OCL: Erk, Ludwig
!!!GCO: Deutscher Liederschatz, Band 1
**kern	**kern	**kern
*staff3	*staff2	*staff1
*Ipiano	*Ipiano	*Ivox
*>[A,A,B]	*>[A,A,B]	*>[A,A,B]
*>norep[A,B]	*>norep[A,B]	*>norep[A,B]
*>A	*>A	*>A
*clefF4	*clefG2	*clefG2
*k[f#c#]	*k[f#c#]	*k[f#c#]
*D:	*D:	*D:
*met(C)	*met(C)	*met(C)
*M4/4	*M4/4	*M4/4
*MM112	*MM112	*MM112
4F#\ 4A\	4f#/ 4a/	4a/
=1	=1	=1
4.E\ (4.G\	4.e/ (4.g/	4.g/
8D\ 8F#\)	8d/ 8f#/)	8f#/
4D\ 4F#\	4d/ 4f#/	4f#/
4B\ 4d\	4d/ 4dd/	4dd\
=2	=2	=2
*	*^	*
4.A\ (4.c#\	(4.cc#/	2d\	4.cc#^\
8G\ 8B\)	8b/)	.	8b\
*	*v	*v	*
4G\ 4B\	4d/ 4b/	4b\
4G\ 4B\	4d/ 4b/	4b\
=3	=3	=3
4G\ (4B\	(4c#/ 4e/	4e/
4F#\ 4A\	4d#/ 4f#/	4f#/
4E\ 4G\	4e/ 4g/	4g/
4Dn\ 4F#\)	4f#/) 4b/	4b\
=4	=4	=4
*^	*^	*
2A/	4C#\	(4.a/	4e\	4.a/
.	4AA\	.	4c#\	.
.	.	8g/)	.	8g/
*	*	*v	*v	*
2ryy	4D\ 4A\	4dn/ 4f#/	4f#/
.	4FF#/	4A/ 4d/ 4a/	4a/
*v	*v	*	*
=5	=5	=5
*	*^	*
(4GG/	(4.e/	4B\ 4d\	(4.e/
4AA/)	.	4A\ 4c#\	.
.	8g/)	.	8g/)
*	*v	*v	*
4DD/	4A/ 4d/ 4f#/	4f#/
4FF#/	4A/ 4d/ 4a/	4r
=6	=6	=6
*	*^	*
(4GG/	(4.e/	4B\ 4d\	2r
4AA/)	.	4A\ 4c#\	.
.	8g/)	.	.
*	*v	*v	*
4DD/	4A/ 4d/ 4f#/	4r
4D\	4d/ 4f#/	4f#/
=7	=7	=7
4BB/	4f#/ 4b/ 4dd/	4dd\
4C#/	4e/ 4a/ 4cc#/	4cc#\
4D\	4.d/ 4.f#/ 4.b/	4.b\
4BB/	.	.
.	8d/ 8f#/ 8a/	8a/
=8	=8	=8
*^	*^	*
(4.c#/	2E\	(4.a/	2e\	4.a/
8B/)	.	8g#/)	.	8g#/
*	*	*v	*v	*
2ryy	4E\ 4B\	4e/ 4g#/	4g#/
.	4E\ 4G#\	4d/ 4e/	4e/
*v	*v	*	*
=9	=9	=9
4AA\ 4A\	4c#/ 4e/ 4cc#/	4cc#\
4BB/	4d/ 4g#/ 4b/	4b\
*	*^	*
4C#/	4.a/	4c#\ 4f#\	4.a/
4C#/	.	4B\ 4e#\	.
.	8g#/	.	8g#/
*	*v	*v	*
=10	=10	=10
*^	*	*
(4.B/	2D\	4.e#/ (4.g#/	4.g#/
8A/)	.	8f#/)	8f#/
*v	*v	*	*
4D\ 4A\	4f#/	4f#/
4FF#/	4A/ 4d/ 4a/	4a/
=11	=11	=11
*	*^	*
(4GG/	(4.en/	4B\ 4d\	(4.en/
4AA/)	.	4A\ 4c#\	.
.	8gn/)	.	8gn/)
*	*v	*v	*
4DD/	4A/ 4d/ 4f#/	4f#/
4FF#/	4A/ 4d/ 4a/	4r
=12	=12	=12
*	*^	*
(4GG/	(4.e/	4B\ 4d\	2r
4AA/)	.	4A\ 4c#\	.
.	8g/)	.	.
*	*v	*v	*
4DD/	4A/ 4d/ 4f#/	4r
4FF#/	4A/ 4d/ 4a/	4a/
=13	=13	=13
*	*^	*
(2AA/	(2.e/	[2A\ 2d\	(2.e/
2AAA/)	.	2A\] 2c#\	.
.	4g/)	.	4g/)
*	*v	*v	*
=14	=14	=14
2.DD;/	2.A;/ 2.d;/ 2.f#;/	2.f#;/
=:|!	=:|!	=:|!
*>B	*>B	*>B
4F#\ 4A\	4f#/ 4a/	4a/
=15	=15	=15
4.E\ (4.G\	4.e/ (4.g/	4.g/
8D\ 8F#\)	8d/ 8f#/)	8f#/
4D\ 4F#\	4d/ 4f#/	4f#/
4B\ 4d\	4d/ 4dd/	4dd\
=16	=16	=16
*	*^	*
4.A\ (4.c#\	(4.cc#/	2d\	4.cc#\
8G\ 8B\)	8b/)	.	8b\
*	*v	*v	*
4G;\ 4B;\	4d;/ 4b;/	4b;\
4G\ 4B\	4d/ 4b/	4r
=17	=17	=17
4G\ (4B\	(4c#/ 4e/	2r
4F#\ 4A\	4d#/ 4f#/	.
4E\ 4G\	4e/ 4g/	4r
4Dn\ 4F#\)	4f#/) 4b/	4b\
=18	=18	=18
*^	*^	*
[2A/	4C#\	(4.a/	4e\	4.a/
.	4AA\	.	4c#\	.
.	.	8g/)	.	8g/
*	*	*v	*v	*
2ryy	4D\ 4A\]	4dn/ 4f#/	4f#/
.	4C#\ 4A\	4e/ 4f#/	4f#/
*v	*v	*	*
=19	=19	=19
4BB\ 4B\	4d/ 4f#/ 4dd/	4dd\
4C#/	4e/ 4a#/ 4cc#/	4cc#\
4D\	4.d/ 4.f#/ 4.b/	4.b\
4BB\ 4B\	.	.
.	8d/ 8f#/ 8an/	8an/
=20	=20	=20
*^	*^	*
(4.c#/	2E\	(4.a/	2e\	4.a/
8B/)	.	8g#/)	.	8g#/
*	*	*v	*v	*
2ryy	4E\ 4B\	4e/ 4g#/	4g#/
.	4D\ 4G#\ 4B\	4e/ 4b/	4b\
*v	*v	*	*
=21	=21	=21
4C#\ 4A\	4e/ 4a/ 4ee/	4ee\
4D\ 4A\	4f#/ 4a/ 4dd/	4dd\
*	*^	*
4E\ 4A\	4.cc#/	4e\ 4a\	4cc#\
4E#\	.	4d\ 4g#\	8r
.	8b/	.	8b\
*	*v	*v	*
=22	=22	=22
2F#;\	4.d;/ 4.f#;/ 4.b;/	4.b;\
.	8c#/ 8a/	8a/
4F#;\	4c#;/ 4a;/	4a;/
4FF#/	4A/ 4d/ 4a/	4a/
=23	=23	=23
*	*^	*
(4GG/	(4.e/	4B\ 4d\	4.e/
4AA/)	.	4A\ 4c#\	.
.	8gn/)	.	8gn/
*	*v	*v	*
4DD/	4A/ 4d/ 4f#/	4f#/
4FF#/	4A/ 4d/ 4a/	4r
=24	=24	=24
*	*^	*
(4GG/	(4.e/	4B\ 4d\	2r
4AA/)	.	4A\ 4c#\	.
.	8g/)	.	.
*	*v	*v	*
4DD/	4A/ 4d/ 4f#/	4r
4FF#/	4A/ 4d/ 4a/	4a/
=25	=25	=25
*	*^	*
2AA/	(2.e/	[2A\ 2d\	2.e/
2AAA/ 2AA/	.	2A\] 2c#\	.
.	4g/)	.	4g/
*	*v	*v	*
=26	=26	=26
2.DD/ 2.D/	2.A;/ 2.d;/ 2.f#;/	2.f#;/
==	==	==
*-	*-	*-
!!!ENC: Craig Stuart Sapp
!!!END: 2004/05/26/
!!!EFL: 038/651
